icons/tsx.svg

<?xml version="1.0" encoding="UTF-8"?>
<!DOCTYPE svg PUBLIC "-//W3C//DTD SVG 1.1//EN" "http://www.w3.org/Graphics/SVG/1.1/DTD/svg11.dtd">
<!-- Creator: CorelDRAW 2021 (64-Bit) -->
<svg xmlns="http://www.w3.org/2000/svg" xml:space="preserve" width="103.082mm" height="95.0594mm" version="1.1" style="shape-rendering:geometricPrecision; text-rendering:geometricPrecision; image-rendering:optimizeQuality; fill-rule:evenodd; clip-rule:evenodd"
viewBox="0 0 10911.88 10062.63"
 xmlns:xlink="http://www.w3.org/1999/xlink"
 xmlns:xodm="http://www.corel.com/coreldraw/odm/2003">
 <defs>
  <style type="text/css">
   <![CDATA[
    .fil0 {fill:#DA1F24}
   ]]>
  </style>
 </defs>
 <g id="Layer_x0020_1">
  <metadata id="CorelCorpID_0Corel-Layer"/>
  <path class="fil0" d="M5405.53 0l-1297.31 1746.42 748.71 793.29 549.61 687 49.4 -52.34 49.4 52.34 549.6 -687 748.71 -793.29 -1297.3 -1746.42 -100.82 0zm3327.48 10062.63l216.23 -282.75 1962.64 -2378.42 -2062.42 -2594.69 -1912.75 2827.52 -1414.73 -1718.95 -132.1 0 -1414.73 1718.95 -1912.75 -2827.52 -2062.41 2594.69 1962.64 2378.42 216.22 282.75 0 -3592.62 2428.31 2777.64 0 -1014.59 515.64 382.53 0 -1380.47 333.13 -180.45 333.13 180.45 0 1380.47 515.63 -382.53 0 1014.59 2428.31 -2777.64 0 3592.62zm-1862.83 -6885.81l149.7 3426.24 1596.7 -2262 -1679.88 -2311.89 -1480.77 1793.41 -1480.78 -1793.41 -1679.88 2311.89 1596.7 2262 149.7 -3426.24c1810.45,1810.44 1018.04,1810.44 2828.49,0z"/>
 </g>
</svg>

<svg xmlns="http://www.w3.org/2000/svg" xml:space="preserve" width="389.601" height="359.28" style="shape-rendering:geometricPrecision;text-rendering:geometricPrecision;image-rendering:optimizeQuality;fill-rule:evenodd;clip-rule:evenodd" viewBox="0 0 10911.88 10062.63"><path d="M5405.53 0 4108.22 1746.42l748.71 793.29 549.61 687 49.4-52.34 49.4 52.34 549.6-687 748.71-793.29L5506.35 0zm3327.48 10062.63 216.23-282.75 1962.64-2378.42-2062.42-2594.69-1912.75 2827.52-1414.73-1718.95h-132.1L3975.15 7634.29 2062.4 4806.77-.01 7401.46l1962.64 2378.42 216.22 282.75V6470.01l2428.31 2777.64V8233.06l515.64 382.53V7235.12l333.13-180.45 333.13 180.45v1380.47l515.63-382.53v1014.59L8733 6470.01v3592.62zM6870.18 3176.82l149.7 3426.24 1596.7-2262L6936.7 2029.17 5455.93 3822.58 3975.15 2029.17 2295.27 4341.06l1596.7 2262 149.7-3426.24c1810.45 1810.44 1018.04 1810.44 2828.49 0z" style="fill:#da1f24"/></svg>
